X: 192
T: Miss Herron's Reel
R: reel
M: C|
L: 1/8
Z: 2012 John Chambers <jc:trillian.mit.edu>
B: J. Anderson "Budget of Strathspeys, Reels and Country Dances" (Early 1800s) p.19 #2
F: http://imslp.org/wiki/Anderson%27s_Budget_of_Strathspeys,_Reels_and_Country_Dances_(Various)
K: G
g | dGBG FAAc | (B/c/d) (gd) e3g | dgdB cAFd | BGFD G3 :|
g | (b/a/)(g/f/) (gd) egac' | bgdB e3g | dBgG FAAd | BGFD G3 ||
g | (b/a/g/f/) (ge) f/g/a/c'/ |(b/a/g/f/) (gd) e3g | dbdB cAFd | BGFD G3 |]

%%sep 2 1 500
%%sep 1 1 500

